X:1
T:Truehearted, Wholehearted
T:George Coles Stebbins
T:Truehearted, Wholehearted
T:Public Domain
T:Public Domain
T:Public Domain
C:George Coles Stebbins
Z:Public Domain
%%score ( 1 2 ) ( 3 4 )
L:1/8
M:6/8
K:F
V:1 treble 
V:2 treble 
V:3 bass 
V:4 bass 
V:1
 [CF]3 C2 [CF] | [FA]3 F2 [FA] | [Ac]3 ([Bd][Ac])[^G=B] | [Ac]3 [FA]3 | [FB]3 [Fc]2 [Fc] | %5
w: 1.~True- heart- ed,|heart- ed, faith-|and loy- * al,|King of|our lives, by|
w: 2.~True- heart- ed,|heart- ed, Sav-|all glor- * ious!|Take Thy|great pow- er|
w: 3.~True- heart- ed,|heart- ed! Full-|al- le- * giance|Yield- ing|hence- forth to|
w: 4.~True- heart- ed!|ior, Thou know-|our stor- * y,|Weak are|the hearts that|
w: 5.~Whole- heart- ed!|ior be- lov-|and glor- * ious,|Take Thy|great pow- er|
w: 6.~Half- heart- ed,|heart- ed! Heed|the warn- * ing!|On- ly|the whole can|
w: 7.~Half- heart- ed!|ior, shall aught|with- hold- * en,|Giv- ing|Thee part who|
w: 8.~Half- heart- ed?|ter, shall a-|who know * Thee|Grudge Thee|their lives, Who|
 [Fd]3 [Fc]2 [Fc] | [F=B]3 [FA]2 [FG] | [Ec]6 | [CF]3 C2 [CF] | [FA]3 F2 [FA] | %10
w: Thy grace we|will be; Un-|der|the stand- ard|alt- ed and|
w: and reign there|a- lone, O-|ver|our wills and|fect- ions vic-|
w: our glor- i-|ous king! Val-|iant|en- dea- vor|lov- ing o-|
w: we lay at|Thy feet, Sin-|ful|and treach- er-|yet, for Thy|
w: and reign Thou|a- lone, O-|ver|our wills and|fect- ions vic-|
w: be per- fect-|ly true; Bring|the|whole of- fering,|tim- id thought|
w: has giv- en|us all? Bless-|ings|out- pour- ing,|prom- is- es|
w: has laid down|Thine own? Nay!|we|would of- fer|hearts that we|
 [Ac]3 ([Bd][Ac])[^G=B] | [Ac]3 [FA]3 | [FB]3 [Fc]2 [Fc] | [Fd]3 [Fc]2 [EB] | [FA]3 [EA]2 [EG] | %15
w: al, Strong * in|Thy strength|we will bat-|tle for Thee.||
w: ious, Free- * ly|sur- rend-|ered and whol-|ly Thine own.||
w: dience Free- * ly|and joy-|ous- ly now|would we bring.||
w: y, Heal * them,|and cleanse|them from sin|and de- ceit.|Peal out the|
w: ious— Free- * ly|sur- rend-|ered and whol-|ly Thine own.||
w: ing, True- * heart-|ed on-|ly if whole-|heart- ed too.||
w: en Pledg- * ing,|with nev-|er re- serve|or re- call!||
w: Thee, Live * for|Thy love|and Thy glor-|y a- lone.||
 F6 ||"^Refrain" [Ac]3- [Ac][^G=B][Ac] | [Bd]3 [Ac]3 | [FA]4 [F^G][FA] | [GB]3 [FA]3 | %20
w: |||||
w: |||||
w: |||||
w: watch-|Si- * lence it|nev- er!|Song of our|spir- its,|
w: |||||
w: |||||
w: |||||
w: |||||
 [Bd]4 [Ac][^G=B] | [Ac]3 [FA]2 [FA] | [G=B]3 ([FB][FA])[FB] | ([Ec]3 [Bc]3) | [Ac]4 [^G=B][Ac] | %25
w: |||||
w: |||||
w: |||||
w: re- joic- ing|and free; Peal|out the * watch-|word! *|Loy- al for-|
w: |||||
w: |||||
w: |||||
w: |||||
 [Bd]3 [Ac]3 | [FA]4 [F^G][FA] | [FB]3 [FA]3 | [Bd]4 [Ac][^G=B] | [Ac]3 F2 [FB] | %30
w: |||||
w: |||||
w: |||||
w: ev- er!|King of our|lives, by|Thy grace we|will be. *|
w: |||||
w: |||||
w: |||||
w: |||||
 [FA]3 [EA]2 [EG] | [CF]6 |] %32
w: ||
w: ||
w: ||
w: ||
w: ||
w: ||
w: ||
w: ||
V:2
 x3 C2 x | x3 F2 x | x6 | x6 | x6 | x6 | x6 | x6 | x3 C2 x | x3 F2 x | x6 | x6 | x6 | x6 | x6 | %15
w: whole-|ful|||||||ex-|roy-||||||
w: whole-|ior|||||||af-|tor-||||||
w: whole-|est|||||||and|be-||||||
w: Sav-|est|||||||ous!|glor-||||||
w: Sav-|èd|||||||af-|tor-||||||
w: false-|we|||||||all|scorn-||||||
w: Sav-|be|||||||and|gold-||||||
w: Mas-|ny|||||||the|owe||||||
 F6 || x6 | x6 | x6 | x6 | x6 | x6 | x6 | x6 | x6 | x6 | x6 | x6 | x6 | x3 F2 x | x6 | x6 |] %32
w: |||||||||||||||||
w: |||||||||||||||||
w: |||||||||||||||||
w: word!|||||||||||||||||
w: |||||||||||||||||
w: |||||||||||||||||
w: |||||||||||||||||
w: |||||||||||||||||
V:3
 [F,A,]3 [F,A,]2 [F,A,] | [F,C]3 [F,A,]2 [F,C] | [F,F]3 [F,F]2 [F,D] | [F,F]3 [F,C]3 | %4
 [D,B,]3 [F,A,]2 [F,A,] | B,3 [A,C]2 [A,C] | [G,D]3 [G,C]2 [G,=B,] | [C,C]6 | %8
 [F,A,]3 [F,A,]2 [F,A,] | [F,C]3 [F,A,]2 [F,C] | [F,F]3 [F,F]2 [F,D] | [F,F]3 [F,C]3 | %12
 [D,B,]3 [F,A,]2 [F,A,] | B,3 [A,C]2 [G,C] | C3 [C,C]2 [C,B,] | [F,A,]6 || z3 [F,A,][F,B,][F,C] | %17
 [F,F]3 [F,F]3 | z3 [F,C][F,=B,][F,C] | [F,D]3 [F,C]3 | z3 [F,F][F,F][F,F] | [F,F]3 [F,C]2 z | %22
 z2 G, (G,[G,=B,])[G,D] | [C,C]6 | z3 [F,C][F,D][F,C] | [F,F]3 [F,F]3 | z3 [F,C][F,=B,][F,C] | %27
 [F,D]3 [F,C]3 | z3 [F,F][F,F][F,F] | [F,F]3 [A,C]2 [B,D] | C3 [C,C]2 [C,B,] | [F,A,]6 |] %32
V:4
 x6 | x6 | x6 | x6 | x6 | x6 | x6 | x6 | x6 | x6 | x6 | x6 | x6 | B,3 x3 | x6 | x6 || x6 | x6 | %18
 x6 | x6 | x6 | x6 | x2 G, x3 | x6 | x6 | x6 | x6 | x6 | x6 | x6 | C3 x3 | x6 |] %32

